X: 3
T:Inverness Jig
M:6/8
L:1/8
Q:450
D:The Heart of Cape Bretton, Smithsonian Folkway, Hinnon Beaton, Fiddle
K:D
fg |: aba f2e | dcB A2F | DFA dcd | fed e2f | aba f2e | dcB A2F | DFA cBc | [1 edd dfg | [2 edd d3 :|
 DFA  dcB | ABG F2E | DFA dcd | fed e3 | DFA  dcB | ABG F2E | DFA cBc | edd d3 | 
 DFA  dcB | ABG F2E | DFA dcd | fed efg | aba f2e | dcB A2G | DFA cBc | edd d3 ||
